X: 1171
M: 2/4
L: 1/16
K: Bb
P: 1
de |\
f2fg f2fg | f2df d'2c'2 | b2de g2f2 | e2ce d2B2 |\
f2fg f2fg | f2df g2f2 | e2c2 c'2a2 | b2 z2 H|]
de |\
f2gf f2b2 | baga b2e2 | edcd e2g2 | gfed c2de |\
f2gf f2b2 | baga b2ag | gfdB fecA | B2d2"^da Capo"B2 ]
de |\
f2b2 d2e2 | g4 f2d2 | c2d2e2g2 | f4 dcde |\
f2b2 d2e2 | g2f2 fgfe | d2d2 edcA | B2B2"^da Capo"B2 |]
1. -- Right and left four.
2. -- All balance.
3. -- Ladies' chain.
4. -- Promenade four.
P: 2
g6 f2 | e2d2c2B2 | A2FA c2cB | A2F2 GABc |\
g6 f2 | e2d2c2B2 | AcF2 AcF2 | B4 z2 H|]
z2 |\
d2dd d2c2 | B2c2 B2G2 | A2FA c2cB | A2F2 GA Bc |\
d2dd d2c2 | B2c2 B2G2 | A2FA c2AF | B2d2"^da Capo"B2 |]
1. -- First two forward; give right hand, join the sides.
2. -- Forward and back six; give right hand, turn to place.
3. -- Lead up four to the right; chassez out and form a line.
4. -- All forward and back; turn partners to places.
P: 3
f2 |\
fgfd gfed | cBAB c2c2 | cdcB edcB | AFGA Bcde |\
fgfd gfed | cBAB cedc | Bdfd gecA | B2B2"^da Capo"B2 ]
f2 |\
fdBd gfed | eFAc B2B2 | BAAB ceed | cegf f2f2 |\
fdBd gfed | eFAc B2B2 | BAAB ceec | B2d2"^da Capo"B2 |]
1. -- First couple balance to the right, four hands round to place.
2. -- Right and left with the opposite couple.
3. -- Ladies chain with the next couple.
4. -- All promenade.

